source/icons/share-alt.svg

<svg width="2048" height="2048" viewBox="0 0 2048 2048" xmlns="http://www.w3.org/2000/svg"><path d="M1472 1152q133 0 226.5 93.5t93.5 226.5-93.5 226.5-226.5 93.5-226.5-93.5-93.5-226.5q0-12 2-34l-360-180q-92 86-218 86-133 0-226.5-93.5t-93.5-226.5 93.5-226.5 226.5-93.5q126 0 218 86l360-180q-2-22-2-34 0-133 93.5-226.5t226.5-93.5 226.5 93.5 93.5 226.5-93.5 226.5-226.5 93.5q-126 0-218-86l-360 180q2 22 2 34t-2 34l360 180q92-86 218-86z"/></svg>

<svg width="2048" height="2048" viewBox="0 0 2048 2048" xmlns="http://www.w3.org/2000/svg"><path d="M1472 1152q133 0 226.5 93.5T1792 1472t-93.5 226.5T1472 1792t-226.5-93.5T1152 1472q0-12 2-34l-360-180q-92 86-218 86-133 0-226.5-93.5T256 1024t93.5-226.5T576 704q126 0 218 86l360-180q-2-22-2-34 0-133 93.5-226.5T1472 256t226.5 93.5T1792 576t-93.5 226.5T1472 896q-126 0-218-86L894 990q2 22 2 34t-2 34l360 180q92-86 218-86z"/></svg>
